X:1
T:Come, Lord Jesus, Come
T:Come, Lord Jesus, Come
T:Scott Werdebaugh
T:Scott Werdebaugh, 2018
T:© 2018 Scott Werdebaugh &amp; New Heart Music - May freely copy &amp; use for Christian worship or devotions without alterations. All other rights reserved.
T:© 2018 Scott Werdebaugh &amp; New Heart Music - May freely copy &amp; use for Christian worship or devotions without alterations. All other rights reserved.
C:Scott Werdebaugh
Z:© 2018 Scott Werdebaugh & New Heart Music - May freely copy & use for
Z:Christian worship or devotions without alterations. All other rights reserved.
%%score ( 1 2 ) 3
L:1/8
Q:1/4=108
M:4/4
K:C
V:1 treble 
V:2 treble 
V:3 bass 
V:1
"^Solemnly" [CE]4 [EG]4 | [DF]4 [CE]4 | [B,D]4 z2 [G,C]2 | [CE]3 [EG] [DF]2 [CE]2 | %4
w: Come, Lord|Je- sus,|come; Our|world seeks all but|
 [CE]3 [CF] [B,D]4 | [EA]4 [DB]2 [FB]2 | ([Ec]2 [FB][EA]) [EG]2 [CE]2 | [DF]2 [EG]2 ([FA]2 [Fc]2) | %8
w: You a- lone;|Cha- os and|trou- * * ble all|a- round sur- *|
 ([DB]3 [CA]) [B,G]4 | [Ec]4 [FB]2 [EA]2 | [EG]2 [DF]2 [CE]4 | [FA]2 [Ec]2 [EB]2 [CA]2 | %12
w: round * us;|We eas- i-|ly suc- cumb|to our fears and|
 [DA]2 [EB]2 [Ec]3 [EB] | [EG]4 [DF]2 [EG]2 | [FA]2 [FA]2 ([FB]2 [Ec]2) | [Ec]4 [CA]3 [FA] | %16
w: Sa- tan’s e- vil|will, As life|ov- er- takes *|us ev’- ry|
 [DG]4 z2 [DB]2 | [Ec]4 ([Ge]2 [Fd]2) | [Ec]4 [EG]2 [EG]2 | [FA]2 [Fc]2 [DB]2 [EG][EG] | %20
w: day. How|long, O *|Lord, must we|car- ry on With- out|
 [CA]4 [DG]2 [DG]2 | [CA]3 [DB] [EG]4- [EG] z | [Ec]3 [DB] [CA]3 [EG] | [EG]3 [DF] [CE]3 [EG] | %24
w: Your just and|right- eous rule? *|Spare us from the|dread- ful night; Have|
 [FA]2 [Fc]2 [Ec]2 [DB]2 | [Ec]6 z2 | [FA]4 [Ec]4 | (d3 c B3 c) | [Ec]6 z2 || %29
w: mer- cy on us,|Lord.|Come, Lord|Je- * * *|sus.|
"^Refrain" [CE]4 [EG]4 | [CF]4 [CE]4 | [B,D]4 z2 [A,C][B,D] | [CE]3 [EG] [CF]2 [CE]2 | %33
w: Come, Lord|Je- sus,|come; In Your|pres- ence may we|
 [CE]3 [CF] [B,D]4 | [CA]3 [CA] [DB]2 [Ec]2 | [Ec]3 [DB] [CA]3 [EG] | ([CE]2 [EG]2) [DF]2 [CE]2 | %37
w: find our rest.|May we be the|shin- ing light In|this * dark old|
 [B,E]3 [B,D] [A,C]4 | [CA]4 [Ec]4 | [DB]4 [CA]4 | [EG]4 z2 [EG][EG] | [CA]2 [Ec]2 [DB]2 [CA]2 | %42
w: world of woe.|Come, Lord|Je- sus,|come; Fill us|full, Lord, with Your|
 [FA]4 ([DG]2 [DF]2) | [EG]4 z2 [EG][EG] | [CA]2 [Ec]2 [DB]2 [CA]2 | [EG]4 z2 [G,C][CE] | %46
w: great pres- *|ence; Let Your|love, joy, peace, and|truth Through us|
 ([CF]2 [EG]2) [FA]3 [DA] | [DG]4 z2 [DG][DB] | [Ec]2 [DB]2 [CA]2 [DB]2 | [Ec]3 [FA] [EG]4 | %50
w: lead * all to|You, Till we|all can pray this|prayer, O God:|
 [FA]4 [Ec]4 | [Fc]4 [GB]4 | [Ec]6 z2 | [G,C]4 [CE]4 | [B,D]4 [A,C]4 | [G,C]6 z2 |] %56
w: Come, Lord|Je- sus,|come;|Come, Lord|Je- sus,|come!|
V:2
 x8 | x8 | x8 | x8 | x8 | x8 | x8 | x8 | x8 | x8 | x8 | x8 | x8 | x8 | x8 | x8 | x8 | x8 | x8 | %19
 x8 | x8 | x10 | x8 | x8 | x8 | x8 | x8 | F4 D4 | x8 || x8 | x8 | x8 | x8 | x8 | x8 | x8 | x8 | %37
 x8 | x8 | x8 | x8 | x8 | x8 | x8 | x8 | x8 | x8 | x8 | x8 | x8 | x8 | x8 | x8 | x8 | x8 | x8 |] %56
V:3
 [C,G,]4 [C,C]4 | [G,B,]4 [C,G,]4 | [G,,G,]4 z2 [C,E,]2 | [C,G,]3 [C,C] [G,B,]2 [C,G,]2 | %4
 [C,G,]3 [F,A,] [G,,G,]4 | [A,,C]4 [D,F,]2 [D,B,]2 | ([A,,A,]2 [D,B,][A,,C]) [E,B,]2 [A,,A,]2 | %7
 [D,A,]2 [A,,C]2 ([D,F,]2 [D,A,]2) | ([D,G,]3 [F,A,]) [E,G,]4 | [A,,A,]4 [D,B,]2 [A,,C]2 | %10
 [E,B,]2 [D,A,]2 [A,,A,]4 | [D,A,]2 [A,,A,]2 [E,G,]2 [E,A,]2 | [D,F,]2 [E,G,]2 [A,,A,]3 [E,G,] | %13
 [E,B,]4 [D,A,]2 [E,B,]2 | [D,A,]2 [D,A,]2 ([D,B,]2 [A,,A,]2) | [A,,A,]4 [F,,F,]3 [F,C] | %16
 [G,B,]4 z2 [G,,G,]2 | [C,G,]4 ([C,C]2 [G,B,]2) | [C,G,]4 [C,C]2 [C,C]2 | %19
 [F,C]2 [F,A,]2 [G,,G,]2 [C,C][C,C] | [F,C]4 [G,B,]2 [G,B,]2 | [F,A,]3 [G,,G,] [C,C]4- [C,C] z | %22
 [C,G,]3 [G,,G,] [F,,F,]3 [C,C] | [E,B,]3 [D,A,] [A,,A,]3 [C,C] | [F,C]2 [F,A,]2 [C,G,]2 [G,,F,]2 | %25
 [C,G,]6 z2 | [F,C]4 [C,G,]4 | ([D,A,]4 [G,,G,]3 [F,A,]) | [C,G,]6 z2 || [C,G,]4 [C,C]4 | %30
 [F,A,]4 [C,G,]4 | [G,,G,]4 z2 [F,,F,][G,,G,] | [C,G,]3 [C,C] [F,A,]2 [C,G,]2 | %33
 [C,G,]3 [F,A,] [G,,G,]4 | [F,,F,]3 [F,,F,] [G,,G,]2 [C,G,]2 | [C,G,]3 [G,,G,] [F,,F,]3 [C,C] | %36
 ([A,,A,]2 [E,B,]2) [D,A,]2 [A,,A,]2 | [E,G,]3 [D,F,] [A,,E,]4 | [F,,F,]4 [C,G,]4 | %39
 [G,,G,]4 [F,,F,]4 | [C,C]4 z2 [C,C][C,C] | [F,,F,]2 [C,G,]2 [G,,G,]2 [F,,F,]2 | [C,F,]4 [G,B,]4 | %43
 [C,C]4 z2 [C,C][C,C] | [F,A,]2 [C,G,]2 [G,,G,]2 [F,,F,]2 | [C,C]4 z2 [C,E,][C,G,] | %46
 ([F,A,]2 [C,C]2) [F,C]3 [F,A,] | [G,B,]4 z2 [G,B,][G,,G,] | [C,G,]2 [G,,G,]2 [F,,F,]2 [G,,G,]2 | %49
 [C,G,]3 [C,F,] [C,C]4 | [F,C]4 [C,G,]4 | [F,A,]4 [D,G,]4 | [C,G,]6 z2 | [C,E,]4 [C,G,]4 | %54
 [G,,G,]4 [F,,F,]4 | [C,E,]6 z2 |] %56

